src/svg/rain-snow.svg

<svg xmlns="http://www.w3.org/2000/svg" width="1000" height="1000" viewBox="0 0 1000 1000"><path fill="#020202" d="M719.265 660.936h-84.357c-5.064-16.987-13.798-36.447-24.385-56.346 48.769.18 89.423.319 108.742.319 64.919 0 117.575-52.637 117.575-117.535 0-64.908-52.656-117.525-117.575-117.525-8.952 0-17.645 1.116-26.039 3.001 2.792-12.681 4.307-25.82 4.307-39.358 0-101.564-82.305-183.869-183.829-183.869-96.142 0-174.938 73.781-183.092 167.779-7.178-1.076-14.495-1.834-22.012-1.834-79.474 0-143.934 64.45-143.934 143.923 0 79.523 64.46 143.983 143.934 143.983 21.334 0 67.271.119 121.283.358-10.706 20.218-19.679 39.937-24.743 57.104h-96.54c-111.215 0-201.395-90.2-201.395-201.445 0-101.654 75.386-185.475 173.282-199.191 33.177-97 124.932-166.883 233.216-166.883 128.96 0 234.651 99.063 245.498 225.24 76.563 18.064 133.625 86.642 133.625 168.717 0 95.843-77.679 173.562-173.561 173.562zm-199.242 63.602c-27.834 0-50.384-22.551-50.384-50.424 0-27.794 50.384-93.609 50.384-93.609s50.344 65.815 50.344 93.609c0 27.873-22.55 50.424-50.344 50.424zm-221.472 181.896c-10.707 0-19.36-8.653-19.36-19.32v-130.576c0-10.666 8.653-19.319 19.36-19.319 10.667 0 19.36 8.653 19.36 19.319v130.575c0 10.667-8.693 19.321-19.36 19.321zm73.293-42.33c-5.384 9.291-17.207 12.481-26.458 7.138l-113.029-65.317c-9.291-5.323-12.462-17.146-7.078-26.438 5.323-9.231 17.167-12.401 26.398-7.038l113.089 65.258c9.231 5.343 12.401 17.187 7.078 26.397zm-7.078-58.179l-113.089 65.317c-9.231 5.344-21.075 2.153-26.398-7.078-5.384-9.271-2.213-21.114 7.078-26.457l113.029-65.258c9.291-5.363 21.074-2.193 26.458 7.078 5.323 9.251 2.153 21.075-7.078 26.398zm339.586 100.509c-10.727 0-19.38-8.653-19.38-19.32v-130.576c0-10.666 8.653-19.319 19.38-19.319 10.667 0 19.319 8.653 19.319 19.319v130.575c0 10.667-8.652 19.321-19.319 19.321zm73.272-42.33c-5.363 9.291-17.207 12.481-26.438 7.138l-113.089-65.317c-9.231-5.323-12.421-17.146-7.078-26.438 5.363-9.231 17.167-12.401 26.438-7.038l113.089 65.258c9.231 5.343 12.422 17.187 7.078 26.397zm-7.118-58.179l-113.049 65.317c-9.231 5.344-21.075 2.153-26.438-7.078-5.343-9.271-2.153-21.114 7.078-26.457l113.089-65.258c9.231-5.363 21.075-2.193 26.438 7.078 5.344 9.251 2.153 21.075-7.118 26.398z"/></svg>

<?xml version="1.0" encoding="utf-8"?>
<!-- Generator: Adobe Illustrator 16.0.0, SVG Export Plug-In . SVG Version: 6.00 Build 0)  -->
<!DOCTYPE svg PUBLIC "-//W3C//DTD SVG 1.1//EN" "http://www.w3.org/Graphics/SVG/1.1/DTD/svg11.dtd">
<svg version="1.1" id="Layer_1" xmlns="http://www.w3.org/2000/svg" xmlns:xlink="http://www.w3.org/1999/xlink" x="0px" y="0px"
	 width="1000px" height="1000px" viewBox="0 0 1000 1000" enable-background="new 0 0 1000 1000" xml:space="preserve">
<path fill="#020202" d="M719.265,660.936c-15.91,0-46.575,0-84.357,0c-5.064-16.987-13.798-36.447-24.385-56.346
	c48.769,0.18,89.423,0.319,108.742,0.319c64.919,0,117.575-52.637,117.575-117.535c0-64.908-52.656-117.525-117.575-117.525
	c-8.952,0-17.645,1.116-26.039,3.001c2.792-12.681,4.307-25.82,4.307-39.358c0-101.564-82.305-183.869-183.829-183.869
	c-96.142,0-174.938,73.781-183.092,167.779c-7.178-1.076-14.495-1.834-22.012-1.834c-79.474,0-143.934,64.45-143.934,143.923
	c0,79.523,64.46,143.983,143.934,143.983c21.334,0,67.271,0.119,121.283,0.358c-10.706,20.218-19.679,39.937-24.743,57.104
	c-42.887,0-78.297,0-96.54,0c-111.215,0-201.395-90.2-201.395-201.445c0-101.654,75.386-185.475,173.282-199.191
	C313.664,163.3,405.419,93.417,513.703,93.417c128.96,0,234.651,99.063,245.498,225.24
	c76.563,18.064,133.625,86.642,133.625,168.717C892.826,583.217,815.147,660.936,719.265,660.936L719.265,660.936z M520.023,724.538
	c-27.834,0-50.384-22.551-50.384-50.424c0-27.794,50.384-93.609,50.384-93.609s50.344,65.815,50.344,93.609
	C570.367,701.987,547.817,724.538,520.023,724.538L520.023,724.538z M298.551,906.434c-10.707,0-19.36-8.653-19.36-19.32V756.538
	c0-10.666,8.653-19.319,19.36-19.319c10.667,0,19.36,8.653,19.36,19.319v130.575C317.911,897.78,309.218,906.434,298.551,906.434
	L298.551,906.434z M371.844,864.104c-5.384,9.291-17.207,12.481-26.458,7.138l-113.029-65.317
	c-9.291-5.323-12.462-17.146-7.078-26.438c5.323-9.231,17.167-12.401,26.398-7.038l113.089,65.258
	C373.997,843.05,377.167,854.894,371.844,864.104L371.844,864.104z M364.766,805.925l-113.089,65.317
	c-9.231,5.344-21.075,2.153-26.398-7.078c-5.384-9.271-2.213-21.114,7.078-26.457l113.029-65.258
	c9.291-5.363,21.074-2.193,26.458,7.078C377.167,788.778,373.997,800.602,364.766,805.925L364.766,805.925z M704.352,906.434
	c-10.727,0-19.38-8.653-19.38-19.32V756.538c0-10.666,8.653-19.319,19.38-19.319c10.667,0,19.319,8.653,19.319,19.319v130.575
	C723.671,897.78,715.019,906.434,704.352,906.434L704.352,906.434z M777.624,864.104c-5.363,9.291-17.207,12.481-26.438,7.138
	l-113.089-65.317c-9.231-5.323-12.421-17.146-7.078-26.438c5.363-9.231,17.167-12.401,26.438-7.038l113.089,65.258
	C779.777,843.05,782.968,854.894,777.624,864.104L777.624,864.104z M770.506,805.925l-113.049,65.317
	c-9.231,5.344-21.075,2.153-26.438-7.078c-5.343-9.271-2.153-21.114,7.078-26.457l113.089-65.258
	c9.231-5.363,21.075-2.193,26.438,7.078C782.968,788.778,779.777,800.602,770.506,805.925L770.506,805.925z"/>
</svg>
